data-matrix-edit.svg

<svg fill="currentColor" viewBox="0 0 24 24"><path d="M20 12.1c-.1 0-.3.1-.4.2l-1 1 2.1 2.1 1-1c.2-.2.2-.6 0-.8l-1.3-1.3c-.1-.1-.2-.2-.4-.2m-1.9 1.8-6.1 6V22h2.1l6.1-6.1zM8 6H6V2h2zm2 10H8v-2h2zm2-10h-2V2h2zm4-4v2h-2V2zm4 2h-2V2h2zM10 20v-2H8v-2H6v-2H4v-2h2V6H4V2H2v20h8zm-4 0H4v-2h2zm16-10h-4V8h4zm-2-4V4h2v2zm-2-2v4h-4V6h2V4zm-8 14v-2h2v-4H8V8h4v2h2v2h2v-2h2v1.1L15.1 14H14v1.1L11.1 18z"/></svg>

<svg  viewBox="0 0 24 24" fill="currentColor"><path  d="M20 12.1C19.9 12.1 19.7 12.2 19.6 12.3L18.6 13.3L20.7 15.4L21.7 14.4C21.9 14.2 21.9 13.8 21.7 13.6L20.4 12.3C20.3 12.2 20.2 12.1 20 12.1M18.1 13.9L12 19.9V22H14.1L20.2 15.9L18.1 13.9M8 6H6V2H8V6M10 16H8V14H10V16M12 6H10V2H12V6M16 2V4H14V2H16M20 4H18V2H20V4M10 20V18H8V16H6V14H4V12H6V6H4V2H2V22H10V20M6 20H4V18H6V20M22 10H18V8H22V10M20 6V4H22V6H20M18 4V8H14V6H16V4H18M10 18V16H12V12H8V8H12V10H14V12H16V10H18V11.1L15.1 14H14V15.1L11.1 18H10Z"/></svg>
